app/assets/images/heroicons/mini/gift-top.svg

<svg width="20" height="20" viewBox="0 0 20 20" fill="none" xmlns="http://www.w3.org/2000/svg">
<path fill-rule="evenodd" clip-rule="evenodd" d="M9.25 3H3.5C2.67157 3 2 3.67157 2 4.5V9.25H5.36497C4.36193 8.17155 4.38539 6.48382 5.43534 5.43387C6.48481 4.3844 8.17149 4.36049 9.25 5.36214V3ZM2 10.75V15.5C2 16.3284 2.67157 17 3.5 17H9.25V12.1236C8.47036 13.6809 6.86003 14.75 5 14.75C4.58579 14.75 4.25 14.4142 4.25 14C4.25 13.5858 4.58579 13.25 5 13.25C6.53679 13.25 7.82445 12.1834 8.16303 10.75H2ZM10.75 17H16.5C17.3284 17 18 16.3284 18 15.5V10.75H11.837C12.1755 12.1834 13.4632 13.25 15 13.25C15.4142 13.25 15.75 13.5858 15.75 14C15.75 14.4142 15.4142 14.75 15 14.75C13.14 14.75 11.5296 13.6809 10.75 12.1236V17ZM18 9.25V4.5C18 3.67157 17.3284 3 16.5 3H10.75V5.36214C11.8285 4.36049 13.5152 4.3844 14.5647 5.43387C15.6146 6.48382 15.6381 8.17155 14.635 9.25H18ZM13.504 6.49453C13.0158 6.00638 12.2244 6.00638 11.7362 6.49453C11.3768 6.85395 11.2105 7.49384 11.1772 8.19191C11.1664 8.41998 11.1706 8.63456 11.1809 8.81764C11.364 8.82791 11.5785 8.83216 11.8066 8.82129C12.5047 8.78805 13.1446 8.62172 13.504 8.2623C13.9922 7.77414 13.9922 6.98269 13.504 6.49453ZM8.26377 6.49453C7.77561 6.00638 6.98415 6.00638 6.496 6.49453C6.00784 6.98269 6.00784 7.77414 6.496 8.2623C6.85542 8.62172 7.49531 8.78805 8.19337 8.82129C8.42145 8.83216 8.63602 8.82791 8.81911 8.81764C8.82938 8.63456 8.83362 8.41998 8.82276 8.19191C8.78952 7.49384 8.62318 6.85395 8.26377 6.49453Z" fill="#0F172A"/>
</svg>

<svg xmlns="http://www.w3.org/2000/svg" viewBox="0 0 20 20" fill="currentColor" aria-hidden="true" data-slot="icon">
  <path fill-rule="evenodd" d="M9.25 3H3.5A1.5 1.5 0 0 0 2 4.5v4.75h3.365A2.75 2.75 0 0 1 9.25 5.362V3ZM2 10.75v4.75A1.5 1.5 0 0 0 3.5 17h5.75v-4.876A4.75 4.75 0 0 1 5 14.75a.75.75 0 0 1 0-1.5 3.251 3.251 0 0 0 3.163-2.5H2ZM10.75 17h5.75a1.5 1.5 0 0 0 1.5-1.5v-4.75h-6.163A3.251 3.251 0 0 0 15 13.25a.75.75 0 0 1 0 1.5 4.75 4.75 0 0 1-4.25-2.626V17ZM18 9.25V4.5A1.5 1.5 0 0 0 16.5 3h-5.75v2.362a2.75 2.75 0 0 1 3.885 3.888H18Zm-4.496-2.755a1.25 1.25 0 0 0-1.768 0c-.36.359-.526.999-.559 1.697-.01.228-.006.443.004.626.183.01.398.014.626.003.698-.033 1.338-.2 1.697-.559a1.25 1.25 0 0 0 0-1.767Zm-5.24 0a1.25 1.25 0 0 0-1.768 1.767c.36.36 1 .526 1.697.56.228.01.443.006.626-.004.01-.183.015-.398.004-.626-.033-.698-.2-1.338-.56-1.697Z" clip-rule="evenodd"/>
</svg>
